packages/product-components/src/images/networks/etc.svg

<svg width="32" height="32" viewBox="0 0 32 32" fill="none" xmlns="http://www.w3.org/2000/svg">
<style>
@media (prefers-color-scheme: dark) {
    .background {
        fill: #F6F6F6;
    }
    .foreground {
        fill: #1F1F1F;
    }
}
</style>
<path class="background" d="M0 8C0 3.58172 3.58172 0 8 0H24C28.4183 0 32 3.58172 32 8V24C32 28.4183 28.4183 32 24 32H8C3.58172 32 0 28.4183 0 24V8Z" fill="#1F1F1F"/>
<path class="foreground" fill-rule="evenodd" clip-rule="evenodd" d="M15.7057 11.7111L10.2031 14.0307L15.6973 5.66676L21.039 14.09L15.7057 11.7111ZM15.7142 21.7873L10.2201 17.6042L15.765 26.3332L21.3184 17.6042L15.7142 21.7873ZM10 16.2572L15.7312 13.8445L21.3015 16.3249L15.7312 19.4403L10 16.2572Z" fill="#F6F6F6"/>
</svg>

<svg xmlns="http://www.w3.org/2000/svg" width="32" height="32" viewBox="0 0 32 32" fill="none">
    <path class="bg" fill="#1F1F1F" d="M0 8a8 8 0 0 1 8-8h16a8 8 0 0 1 8 8v16a8 8 0 0 1-8 8H8a8 8 0 0 1-8-8z" />
    <path class="fg" fill="#F6F6F6" fill-rule="evenodd" d="m15.706 11.711-5.503 2.32 5.494-8.364 5.342 8.423zm.008 10.076-5.494-4.183 5.545 8.73 5.553-8.73zM10 16.257l5.731-2.413 5.57 2.48-5.57 3.116z" clip-rule="evenodd"/>
</svg>
